images/logos/groupon.svg

<?xml version="1.0" encoding="utf-8"?>
<!-- Generator: Adobe Illustrator 23.0.6, SVG Export Plug-In . SVG Version: 6.00 Build 0)  -->
<svg version="1.1" id="Camada_1" xmlns="http://www.w3.org/2000/svg" xmlns:xlink="http://www.w3.org/1999/xlink" x="0px" y="0px"
	 viewBox="0 0 300 120" style="enable-background:new 0 0 300 120;" xml:space="preserve">
<title>groupon</title>
<path d="M48,60.1c0,5.3-1.2,9.8-4.1,13.7C39.4,80.3,32,84.3,24,84.4c-6.6,0.1-12.9-2.6-17.3-7.4C2.2,72.2-0.2,65.9,0,59.4
	C-0.1,53,2.5,46.9,7.2,42.6c4.5-4.6,10.6-7.1,17-7c10.1,0,18.7,6.2,22.6,16.1h-13c-2.9-3.1-6-4.6-9.6-4.6C17.5,47,12.1,52.4,12,59
	c0,0.1,0,0.2,0,0.3c0,7.4,5.8,13.2,12.2,13.2c4.4,0,8.4-2.4,10.6-6.2H21.4V57H48C47.9,58,47.9,59.1,48,60.1z M50.9,83.4v-47h15.6
	c4.8,0,8.9,0.2,11.8,2.6c4.3,2.9,6.2,7.2,6.2,13.2c0,7.7-3.8,13.2-10.6,15.1l11.5,16.1H71.3l-8.9-15.1v15.1L50.9,83.4z M64.6,58.2
	c5.8,0,8.4-1.4,8.4-5.8c0-3.8-2.4-5.5-7.4-5.5h-3.1v11.3H64.6z M93.4,42.6c9.5-9.1,24.5-8.9,33.8,0.3c4.6,4.4,7.2,10.4,7.2,16.8
	c0.1,6.4-2.3,12.6-6.7,17.3c-9.6,9.6-25.2,9.6-34.8,0c-4.3-4.7-6.7-10.9-6.7-17.3C86.2,53.3,88.8,47.1,93.4,42.6z M110.4,72.6
	c6.7,0,12.2-5.3,12.2-13c0-6.8-5.5-12.3-12.3-12.3s-12.3,5.5-12.3,12.3C98.2,66.8,103.9,72.6,110.4,72.6z M149,36.6v28.8
	c0,5.3,1.7,7.9,5.5,7.9c4.1,0,6-2.6,6-7.9V36.6H172v29.3c0,11.5-7,18.2-17.5,18.2s-17-6.5-17-18.2V36.4L149,36.6z M175.2,83.4v-47
	h15.6c4.8,0,8.9,0.2,11.8,2.6c4.3,2.9,6.2,7.2,6.2,13.2s-2.6,11-7.4,13.9c-2.9,1.7-6.7,2.2-11.5,2.2h-3.4v15.1L175.2,83.4z
	 M189.1,58.2c5.8,0,8.4-1.4,8.4-5.8c0-3.8-2.4-5.5-7.7-5.5h-3.1v11.3L189.1,58.2z M217.7,42.6c4.3-4.6,10.3-6.7,17-6.7
	c6.3,0,12.4,2.5,16.8,7c4.6,4.4,7.2,10.4,7.2,16.8c0.1,6.4-2.3,12.6-6.7,17.3c-9.4,9.7-24.8,9.9-34.5,0.5c-0.1-0.1-0.2-0.2-0.3-0.3
	c-4.4-4.8-6.8-11-6.7-17.5C210.5,53.3,213.1,47.1,217.7,42.6z M234.7,72.6c6.7,0,12.2-5.3,12.2-13c0-6.8-5.5-12.3-12.3-12.3
	s-12.3,5.5-12.3,12.3l0,0C222.2,66.6,227.7,72.4,234.7,72.6z M260.9,83.4v-47h10.3l17.3,25.9V36.4H300v46.8h-10.1l-17.5-25.9v26.2
	C272.4,83.4,260.9,83.4,260.9,83.4z"/>
</svg>

<svg xmlns="http://www.w3.org/2000/svg" viewBox="0 0 300 120"><defs><style>.a{fill:#fff;}</style></defs><title>groupon</title><path class="a" d="M48,60.1c0,5.3-1.2,9.8-4.1,13.7A24.62,24.62,0,0,1,24,84.4,23,23,0,0,1,6.7,77,24.79,24.79,0,0,1,0,59.4,22.55,22.55,0,0,1,7.2,42.6a23.24,23.24,0,0,1,17-7c10.1,0,18.7,6.2,22.6,16.1h-13c-2.9-3.1-6-4.6-9.6-4.6A12.06,12.06,0,0,0,12,59.3c0,7.4,5.8,13.2,12.2,13.2a12.22,12.22,0,0,0,10.6-6.2H21.4V57H48A16,16,0,0,0,48,60.1Zm2.9,23.3v-47H66.5c4.8,0,8.9.2,11.8,2.6,4.3,2.9,6.2,7.2,6.2,13.2,0,7.7-3.8,13.2-10.6,15.1L85.4,83.4H71.3L62.4,68.3V83.4ZM64.6,58.2c5.8,0,8.4-1.4,8.4-5.8,0-3.8-2.4-5.5-7.4-5.5H62.5V58.2ZM93.4,42.6a24.27,24.27,0,0,1,33.8.3,23,23,0,0,1,7.2,16.8A25,25,0,0,1,127.7,77a24.62,24.62,0,0,1-34.8,0,25.31,25.31,0,0,1-6.7-17.3A24.29,24.29,0,0,1,93.4,42.6Zm17,30c6.7,0,12.2-5.3,12.2-13a12.25,12.25,0,0,0-24.5,0C98.2,66.8,103.9,72.6,110.4,72.6Zm38.6-36V65.4c0,5.3,1.7,7.9,5.5,7.9,4.1,0,6-2.6,6-7.9V36.6H172V65.9c0,11.5-7,18.2-17.5,18.2s-17-6.5-17-18.2V36.4Zm26.2,46.8v-47h15.6c4.8,0,8.9.2,11.8,2.6,4.3,2.9,6.2,7.2,6.2,13.2s-2.6,11-7.4,13.9c-2.9,1.7-6.7,2.2-11.5,2.2h-3.4V83.4Zm13.9-25.2c5.8,0,8.4-1.4,8.4-5.8,0-3.8-2.4-5.5-7.7-5.5h-3.1V58.2Zm28.6-15.6c4.3-4.6,10.3-6.7,17-6.7a23.62,23.62,0,0,1,16.8,7,23,23,0,0,1,7.2,16.8A25,25,0,0,1,252,77a24.39,24.39,0,0,1-34.8.2,25.44,25.44,0,0,1-6.7-17.5A23.48,23.48,0,0,1,217.7,42.6Zm17,30c6.7,0,12.2-5.3,12.2-13a12.25,12.25,0,0,0-24.5,0A12.71,12.71,0,0,0,234.7,72.6Zm26.2,10.8v-47h10.3l17.3,25.9V36.4H300V83.2H289.9L272.4,57.3V83.5C272.4,83.4,260.9,83.4,260.9,83.4Z"/></svg>
